client/assets/dashboard.svg

<svg height="18" viewBox="0 0 18 18" width="18" xmlns="http://www.w3.org/2000/svg" xmlns:xlink="http://www.w3.org/1999/xlink"><mask id="a" fill="#fff"><path d="m19 5v2h-4v-2zm-10 0v6h-4v-6zm10 8v6h-4v-6zm-10 4v2h-4v-2zm12-14h-8v6h8zm-10 0h-8v10h8zm10 8h-8v10h8zm-10 4h-8v6h8z" fill="#fff" fill-rule="evenodd"/></mask><g fill="#383838" fill-rule="evenodd" mask="url(#a)" transform="translate(-3 -3)"><path d="m0 0h24v24h-24z"/></g></svg>

<?xml version="1.0" encoding="UTF-8"?>
<svg width="18px" height="18px" viewBox="0 0 18 18" version="1.1" xmlns="http://www.w3.org/2000/svg" xmlns:xlink="http://www.w3.org/1999/xlink">
    <defs>
        <path d="M19,5 L19,7 L15,7 L15,5 L19,5 L19,5 Z M9,5 L9,11 L5,11 L5,5 L9,5 L9,5 Z M19,13 L19,19 L15,19 L15,13 L19,13 L19,13 Z M9,17 L9,19 L5,19 L5,17 L9,17 L9,17 Z M21,3 L13,3 L13,9 L21,9 L21,3 Z M11,3 L3,3 L3,13 L11,13 L11,3 Z M21,11 L13,11 L13,21 L21,21 L21,11 Z M11,15 L3,15 L3,21 L11,21 L11,15 Z" id="path-1"></path>
    </defs>
    <g id="Client-Side" stroke="none" stroke-width="1" fill="none" fill-rule="evenodd">
        <g id="Plug-in-Sidebar---swapped-state" transform="translate(-146.000000, -164.000000)">
            <g id="Buttons-/-Contained-/-Primary-2" transform="translate(134.000000, 155.000000)">
                <g id="Buttons-/-Contained-/-Primary">
                    <g id="Buttons-/-Contained-/-Default-+-L.Icon">
                        <g id="icons/ic/outline-dashboard-24px" transform="translate(9.000000, 6.000000)">
                            <mask id="mask-2" fill="white">
                                <use xlink:href="#path-1"></use>
                            </mask>
                            <g fill-rule="nonzero"></g>
                            <g id="ic/color/default" mask="url(#mask-2)" fill="#383838" fill-rule="evenodd">
                                <rect id="BG" x="0" y="0" width="24" height="24"></rect>
                            </g>
                        </g>
                    </g>
                </g>
            </g>
        </g>
    </g>
</svg>
